X:1
T:Root Hog or Die 5
M:4/4
L:1/8
K:C
 C| CC EEG-E z G| GE AF D2 z D| DE FG AF z A/2A/2| AF dB G2 z| G/2G/2|\
 GA Bc d B2 B| cc GE c2 z E| FF EE D G3|A-F FD C3||

